dist/img/WhatsApp.svg

<svg width="26" height="26" viewBox="0 0 26 26" fill="none" xmlns="http://www.w3.org/2000/svg">
<path d="M22.3071 3.69295C19.9255 1.31139 16.7598 0 13.3916 0C13.3914 0 13.3906 0 13.3904 0C11.7245 0.000198364 10.1011 0.322739 8.56557 0.958893C7.02983 1.59505 5.65398 2.51486 4.47589 3.69295C2.09453 6.07431 0.783145 9.2406 0.783145 12.6084C0.783145 14.6169 1.26775 16.6128 2.18598 18.3911L0.0666534 24.4456C-0.0827149 24.8727 0.0230132 25.3369 0.343173 25.6568C0.567126 25.881 0.861896 26 1.165 26C1.29492 26 1.42624 25.9782 1.55439 25.9333L7.60886 23.8142C9.3872 24.7325 11.3831 25.2171 13.3916 25.2171C16.7594 25.2171 19.9255 23.9055 22.3071 21.5241C24.6884 19.1427 26 15.9765 26 12.6086C26 9.2406 24.6886 6.07431 22.3071 3.69295ZM21.2287 20.4458C19.1354 22.5393 16.352 23.692 13.3916 23.692C11.5805 23.692 9.78135 23.2441 8.18848 22.3963C7.89966 22.2428 7.55828 22.2164 7.2518 22.3237L1.75116 24.2488L3.67649 18.7482C3.7838 18.4413 3.75722 18.0999 3.60369 17.8113C2.75608 16.2189 2.30797 14.4197 2.30797 12.6084C2.30797 9.64804 3.46086 6.86459 5.5542 4.77126C7.64734 2.67812 10.4304 1.52522 13.3906 1.52483H13.3916C16.3522 1.52483 19.1354 2.67772 21.2287 4.77126C23.3223 6.86459 24.4752 9.64784 24.4752 12.6084C24.4752 15.569 23.3223 18.3525 21.2287 20.4458Z" fill="#57AD68"/>
<path d="M18.0773 13.733C17.4972 13.1529 16.5534 13.1529 15.9734 13.733L15.339 14.3673C13.7638 13.509 12.4891 12.2343 11.6306 10.6591L12.265 10.0247C12.8452 9.44472 12.8452 8.5009 12.265 7.92088L10.5555 6.21138C9.97547 5.63136 9.03165 5.63136 8.45164 6.21138L7.08411 7.5789C6.30077 8.36224 6.26169 9.70894 6.97402 11.371C7.59252 12.8141 8.72439 14.4003 10.1611 15.837C11.5979 17.2738 13.184 18.4056 14.6271 19.0241C15.4168 19.3625 16.1351 19.5313 16.7558 19.5313C17.4415 19.5313 18.008 19.3252 18.4192 18.914L19.7868 17.5463V17.5465C20.0678 17.2654 20.2226 16.8919 20.2226 16.4946C20.2226 16.0971 20.0678 15.7235 19.7868 15.4427L18.0773 13.733ZM17.3409 17.8357C17.1174 18.0593 16.4298 18.1376 15.228 17.6227C13.9588 17.0788 12.5423 16.0616 11.2394 14.7587C9.93659 13.4558 8.91958 12.0395 8.37566 10.7704C7.86051 9.5685 7.93886 8.88077 8.16242 8.65721L9.50376 7.31587L11.1605 8.97281L10.3664 9.76706C10.0074 10.1261 9.92072 10.6706 10.151 11.1221C11.195 13.1692 12.8289 14.8031 14.8761 15.8471C15.3277 16.0774 15.8722 15.9909 16.2313 15.6317L17.0253 14.8376L18.6823 16.4946L17.3409 17.8357Z" fill="#57AD68"/>
</svg>

<svg width="26" height="26" fill="none" xmlns="http://www.w3.org/2000/svg"><path d="M22.307 3.693A12.525 12.525 0 0013.392 0h-.002c-1.665 0-3.289.323-4.824.959a12.546 12.546 0 00-4.09 2.734 12.526 12.526 0 00-3.693 8.915c0 2.009.485 4.005 1.403 5.783l-2.12 6.055c-.149.427-.043.89.277 1.21a1.158 1.158 0 001.211.277l6.055-2.119a12.645 12.645 0 005.783 1.403c3.367 0 6.534-1.311 8.915-3.693A12.526 12.526 0 0026 12.61c0-3.368-1.311-6.535-3.693-8.916zM21.23 20.446a11.01 11.01 0 01-7.837 3.246c-1.811 0-3.61-.448-5.204-1.296a1.175 1.175 0 00-.936-.072l-5.5 1.925 1.924-5.5c.108-.308.081-.65-.072-.938a11.111 11.111 0 01-1.296-5.203c0-2.96 1.153-5.743 3.246-7.837a11.012 11.012 0 017.837-3.246A11.01 11.01 0 0121.23 4.77a11.01 11.01 0 013.246 7.837 11.01 11.01 0 01-3.246 7.838z" fill="#57AD68"/><path d="M18.077 13.733a1.49 1.49 0 00-2.104 0l-.634.634a9.234 9.234 0 01-3.708-3.708l.634-.634a1.49 1.49 0 000-2.104l-1.71-1.71a1.49 1.49 0 00-2.103 0L7.084 7.58c-.783.783-.822 2.13-.11 3.792.619 1.443 1.75 3.03 3.187 4.466 1.437 1.437 3.023 2.569 4.466 3.187.79.338 1.508.507 2.129.507.686 0 1.252-.206 1.663-.617l1.368-1.368c.28-.28.436-.654.436-1.051 0-.398-.155-.772-.436-1.052l-1.71-1.71zm-.736 4.103c-.224.223-.911.302-2.113-.213-1.27-.544-2.686-1.561-3.989-2.864-1.302-1.303-2.32-2.72-2.863-3.989-.515-1.201-.437-1.89-.214-2.113l1.342-1.341 1.657 1.657-.795.794a1.164 1.164 0 00-.215 1.355 10.758 10.758 0 004.725 4.725c.452.23.996.144 1.355-.215l.794-.794 1.657 1.657-1.341 1.34z" fill="#57AD68"/></svg>
